X:32
T:Lady Charlott's Delight
M:6/8
L:1/8
B:Thompson's Compleat Collection of 200 Favourite Country Dances, vol. 1 (London, 1757)
Z:Transcribed and edited by Fynnian Titford-Mock, 2007
Z:abc's:AK/Fiddler's Companion
K:G
G2d dBG|e/f/ge dBG|G2d dBG|F2G AFD|G2d dBG|e/f/ge d2c|BGB AFA|G3 G,3:|
|:gdg gdg|gfe dcB|gdg gdg|ABA AFD|gdg gdg|gfe agf|fed Ad^c|d3 D3:|

